optimized/solid/folder-add.svg

<svg xmlns="http://www.w3.org/2000/svg" viewBox="0 0 20 20" fill="currentColor" aria-hidden="true">
  <path fill-rule="evenodd" d="M4 4C2.89543 4 2 4.89543 2 6V14C2 15.1046 2.89543 16 4 16H16C17.1046 16 18 15.1046 18 14V8C18 6.89543 17.1046 6 16 6H11L9 4H4ZM11 9C11 8.44771 10.5523 8 10 8C9.44772 8 9 8.44771 9 9V10H8C7.44772 10 7 10.4477 7 11C7 11.5523 7.44772 12 8 12H9V13C9 13.5523 9.44772 14 10 14C10.5523 14 11 13.5523 11 13V12H12C12.5523 12 13 11.5523 13 11C13 10.4477 12.5523 10 12 10H11V9Z"/>
</svg>

<svg xmlns="http://www.w3.org/2000/svg" viewBox="0 0 20 20" fill="currentColor" aria-hidden="true">
  <path fill-rule="evenodd" d="M4 4a2 2 0 00-2 2v8a2 2 0 002 2h12a2 2 0 002-2V8a2 2 0 00-2-2h-5L9 4H4zm7 5a1 1 0 10-2 0v1H8a1 1 0 100 2h1v1a1 1 0 102 0v-1h1a1 1 0 100-2h-1V9z"/>
</svg>
